X:4
T:Catherine Ogie
M:2/4
L:1/8
R:March 
S:Morison \`i Highland Airs and Quicksteps, vol. 2, No. 43  (c. 1882)
Z:AK/Fiddlers Companion
K:A Minor
e/d/ |: BA AG/A/ | BA AB/c/ | de/d/ BA/B/ | G>A Be/d/ | BA AG/A/ | BA Ag | 
ag/e/ d/e/g/d/ | BA Ae/d/ :| de/^f/ gf/g/ | ae ea | g/^f/e/d/ e/f/g/B/ | G>ABe |
de/^f/ gf/g/ | ae ea | g/^f/e/d/ e/f/g/d/ | BA Ae/^f/ | de/^f/ gf/g/ | ae ea | 
g/^f/e/f/ e/f/g/B/ | G>ABe | cB/c/ dc/d/ | e^f/g/ a>f | g/^f/e/d/ e/f/g/B/ | BA A2 ||
